X:91
T:Mucking o' Geordie's Byre. FTB.091
M:6/8
L:1/8
Q:120
B:Fiddler's Tune Book 1, pub.EFDSS.1952
R:.Jig
O:England
Z:Chris Partington <www.cpartington.plus.com>
K:D
B|ABA AFA|d2e f2a|g2e f2d|e2d Bcd|
ABA AFA|d2e f2g|afd efe|d3-d2:|
e/f/|gag gab|fgf fga|efe ede|fed Bcd|
ABA AFA|d2e f2g|afd efe|d3-d2:|

